X: 1
T:The Foxhunters
M:3/4
L:1/8
Q:80
C:
S:Waltz
K:HP
|: {gcGdG}c2{g}cA{g}dB|
{gcGdG}c2{g}cA{g}BA|
{gcGdG}c2{g}cA{g}df|  !
{g}ec{g}AB{g}cA:| |:
{gefe}f2{g}fe{g}de|
{g}fB{g}Bc{g}dB|  !
{gefe}f2{g}fe{g}df|
{g}eA{g}AB{g}cA:|
M:3/4 |:  !
{eAfA}e2{g}ec{g}fd|
{eAfA}e2{g}ec{g}dc|
{eAfA}e2{g}ec{g}Bd|  !
{g}cA{g}cd{g}ec:| |:
{Gdc}d2{g}dc{g}Bc|
{g}dG{g}GA{g}BG|  !
{Gdc}d2{g}dc{g}Bd|
{g}Ac{g}cd{g}ec:|
